X: 38386
T: Star Of Ireland, The
R: reel
M: 4/4
K: Emajor
~B3c BEED|EBAG E=DB,D|EBGE B,EGE|FB~B2 dBAB|
(3efe fd edBA|GBFG E=DB,D|~E3B A=DFA|Beed e4:|
|:FB~B2 FBDB|egfd edBc|=d2ad bdad|egfe =dBBc|
~=d3B ~c3A|BEGB eBGB|dB~B2 afdf|(3efe fd e4:|

